X: 7360
T: Cliffs Of Moher, The
R: jig
M: 6/8
K: Adorian
|:~a3 bag|eaf ged|cBA BAG|EFG ABA|
~a3 bag|eaf ged|cBA BAG|1 EFG AB/c/d:|2 EFG ABA||
efe dBA|efe dBA|GAB dBA|GAB dBd|
~e3 dBA|~e3 dBA|GAB dBG|EFG ABA|
gfe dBA|gfe dBA|GAB dBA|GAB dBd|
~e3 ~d3|~c3 ~B3|~A3 FED|B,A,G, A,3||

